img/icon-dnd.svg

<svg fill="none" height="24" viewBox="0 0 24 24" width="24" xmlns="http://www.w3.org/2000/svg"><path d="m4.38556 5.85969c-.02369-.67176.079-1.32008.50161-1.88247.0119.28901.04739.5663.16588.84359.23303-1.07402.77807-1.92543 1.67068-2.55812-.07504.23043-.13823.46086-.11849.69129.34361-.28901.74253-.69519 1.75362-.88656.5806-.10937 1.17304-.07805 1.66274.03911 1.5206.36321 2.4093 1.33959 2.7529 2.82368.2094.90219.0277 1.75749-.3278 2.59328-.2054.48429-.4739.95295-.8176 1.37085-.079-.07424-.154-.14848-.229-.21872-1.69047-1.59346-1.0585-.98419-1.47719-1.46066-.04345-.0469-.0395-.08583-.00403-.14069.32782-.52724.46602-1.10136.39492-1.71843-.0434-.38275-.1698-.73815-.44626-1.02325-.57269-.59755-1.54825-.58583-2.11304.02337-.45025.48818-.55689 1.0701-.43051 1.7028.00788.0507.01575.10539 0 .15228-.13428.53507-.18168 1.07793-.09873 1.62471.00402.01956.00402.04292.00402.06247 0 .01212-.00402.01956-.00787.04292-.86102-.42961-1.42186-1.10526-1.70623-2.03868-.32782.69519-.43841 1.38646-.26068 2.11288-.61614-.59364-.84129-1.33941-.86894-2.15565zm18.54734 4.81161c-.4581-.453-.9874-.79674-1.5838-1.03886-.5055-.20309-1.0269-.30855-1.5759-.2773-.3949.02337-.7741.12114-1.1454.24995-.0987.03513-.2014.06247-.3041.08584-.1935.04689-.2883-.12114-.1856-.26558.1264-.17966.1343-.16405.5924-.46866.0237-.01558.0474-.03133.0869-.05867h-.0987c-.0237 0-.0474.00865-.0751.01211-.7622.12892-1.2125.60536-1.9313 1.15607-.4108.3163-.5451.1484-.474-.0196.0553-.1367.1304-.26166.2015-.39054.0395-.07026.0908-.13273.1382-.1992-.0079-.00865-.0197-.01211-.0276-.01955-1.0664.71469-1.8445 1.65599-2.279 2.86279.0119.0121.0277.0233.0395.0351.0119-.0234.0198-.0469.0356-.0665.4107-.4725.9005-.8514 1.4455-1.1638.7189-.414 1.4811-.7147 2.3184-.7889.1699-.0156.3437-.0035.5174-.0035-.071.0274-.1382.0352-.2093.0429-.7307.0938-1.4021.3516-2.034.7226-1.1928.6991-2.1526 1.6481-2.9662 2.7495-.0119.0155-.0157.0351-.0276.0507.5727.207.9479.6756 1.4258.9998.0078-.0035.0119-.0087.0157-.0156l.0474-.1054c.4819-1.0506 1.0664-2.0426 1.8445-2.9096.6596-.7342 1.5008-.9881 2.4685-.7811.233.0507.4502.1718.6793.2656.0909-.0547.2014-.125.316-.1836.3317-.168.6872-.2734 1.0545-.3515.5806-.1211 1.1652-.1913 1.7576-.0507v-.0195c-.0198-.0156-.0473-.0319-.0671-.0553zm-9.2974 6.8542c-1.5561-1.2888-.9005-.7616-1.6864-1.3904-.0316.0352 0-.0086-.0751.1172-.4423.7459-1.0071 1.3786-1.7378 1.859-.40681.2656-.84917.4609-1.34682.4609-.85312 0-1.50875-.3711-1.95111-1.0858-.47395-.7615-.52529-1.5895-.32386-2.4448.30806-1.3201 1.18883-2.1559 1.52454-2.5113-.73857-.2421-1.30337.0665-1.83261.5429.0316-.5429.16983-1.0233.46605-1.4568-.95975.414-1.81287.9764-2.55934 1.7145-.0119-.2265.21327-1.7067.22117-1.7457.0119-.1054-.02369-.207-.11849-.289-.95581.9646-1.75758 2.023-2.21573 3.3041.29227-.2305.58849-.4453.93211-.6327-.32782.8709-.77413 2.0621-.30807 3.9484.18168.7421.47 1.4373.95185 2.0426.11454.1445.24883.2695.37521.4023.00788-.0087.01575-.0121.0237-.0196-.0553-.2734-.08689-.5506-.05924-.8553.08689.125.15404.2344.23303.3359.49765.6249 1.13354 1.0701 1.86421 1.3904.9874.4413 2.01825.5194 3.07675.3358 2.16835-.3788 3.58225-1.898 4.58155-3.8586.0395-.0703.0237-.1131-.0356-.164zm6.7934-1.8122c-.3752-.1211-.8768-.164-1.1336-.1131.391.1562.5569.2577.7426.4686.4976.5624.4107 1.3552-.2133 1.781-.4621.3163-.9835.41-1.5364.3554-.0474-.0035-.0909-.0156-.1185-.0234.1106-.1445.237-.2734.3199-.4218.3713-.6561.2133-1.6442-.3436-2.191-.0829-.082-.1817-.1523-.2765-.2304-.0119.0507-.004.082.004.1093.1659.6483-.3199 1.2654-.9795 1.242-.3001-.0121-.549-.1485-.7741-.332-.7702-.6288-1.5443-1.2537-2.3105-1.8864-.233-.1913-.4937-.3163-.7939-.3397-.1817-.0156-.3673-.0234-.549-.0352-.233-.0155-.3475-.1093-.4107-.328-.0356-.1328-.0593-.2656-.0869-.3984-.0593-.3164-.2449-.5077-.5648-.5546-.1738-.0273-.3515-.0391-.5253-.0587-.5135-.0546-.782-.289-.89262-.7928-.19748.4296-.06319.8749.28832 1.1678.1777.1484.3673.2851.545.4374.1817.1485.2923.3398.3121.578.0157.1836.0316.371.0711.5507.0868.414.3515.7186.6714.9803.6517.535 1.3034 1.0662 1.955 1.6052.707.5858.549 1.281.5135 2.1871-.0356.8943.4818 1.6754 1.3231 1.9996.0395.0156.079.0233.1422.0429-.6201-.7108-.3989-1.7223.0276-2.0426.0119.0858.0158.1679.0356.25.3713 1.7223 1.7931 2.5073 3.3572 2.2222.6319-.1132 1.2085-.3476 1.6943-.7733.079-.0702.1462-.1601.2331-.2538-.7623.1796-1.414.0034-2.0104-.414.0277-.0121.0514-.0121.0751-.0121.8412.0702 1.6035-.1328 2.2512-.6796.7702-.6483 1.0506-1.6755.6873-2.5776-.3279-.7851-.9322-1.2612-1.73-1.519zm-15.37585-6.71356c-.20933-.35932-.52135-.60927-.87287-.83189.5411-.01956 1.0506.00865 1.56405.14449-.27647-.47647-.33572-.96467-.19748-1.51145.20933.46477.54109.78502.93211 1.0467.77807.51552 1.41.76547 1.84446 1.17946.13428.12892.24883.2773.37916.42571-.0316-.08202-.0553-.16007-.08688-.23434-.19748-.41398-.51345-.72642-.89262-.97637-.07108-.0469-.11058-.0976-.13427-.17576-.13034-.48819-.1185-.98028-.02765-1.46847.03949-.2148.11058-.42571.17773-.63661.0316-.09379.09084-.17965.15799-.25777.02369.26949 0 .99593.77412 1.79655.42656.44132.88471.85532 1.3389 1.27711.3555.33197.7228.65223 1.0072 1.04667.0434.06247.0869.12893.1501.18353-.1975-.50768-.5609-.9412-.9559-1.32003-.37912-.36321-.76618-.71862-1.15324-1.07011-.13034-.11716-.18168-.26167-.20143-.4257-.04739-.40618 0-.80455.16984-1.17947.01976-.03911.04345-.07805.07504-.12892.01976.16404.02369.30854.0553.45303.18958.90219.80572 1.41771 1.94719 2.48002.3949.36712.7622.74987 1.0111 1.23418.1895.3632.2883.742.2251 1.156-.004.0234.0198.0665.0434.078.2449.1016.395.2695.3832.5585.3041-.1015.4937-.3124.6477-.5663.1659.789-.3594 1.9645-1.0743 2.2926.0157-.1758.1975-.9139-.6517-1.0818-.2686-.0507-.5055-.0507-.9044-.0821.1856-.3515.4107-.8045.0197-.8748-.98346-.1797-2.0854.0742-2.28288.1796.32387.0156.64379.0392.92816.129-.07899.2538-.15799.496-.22908.7381-.07504.2539.08294.5702.36732.3749.04739-.0351.09084-.0742.13034-.1053-.12243.6991-.11454.6209-.11058.7147.0119.3983.37521.3046.62012.2851-.0988.4608-1.16517 1.0662-1.79316 1.0076.27647-.1836.5016-.4023.62799-.6991-.25672.0313-.5095.0625-.75833.0938l-.0119-.0351c.18564-.1327.31597-.3047.40286-.5116.34362-.8241-.14218-1.4841-.9874-1.5583-.35941-.0314-.70303.0313-1.02294.2148.24487-.6093.67933-1.0389 1.28757-1.3474-.60034-.1681-.35152-.1054-.97161-.2461.57665-.3632 1.19279-.5155 1.83657-.5702-.20538-.1249-1.89976-.1407-2.77262.8163.31202.0546.61219.1093.91631.164-.94001.2734-1.73783.7694-2.46456 1.3904.04345-.1875.10665-.3711.13034-.5585.0237-.1758.03159-.3593.00403-.5312-.05924-.3671-.35152-.5897-.77808-.6366-.31201-.0351-.61613.0035-.92025.0507-.03555.0035-.06715.0121-.11454 0 .62404-.578 1.42186-.8475 2.09724-1.30832.23698-.17575.26851-.32028.11843-.58194zm5.07125 1.04666c.1304.6249.4977.9959.94.9491-.1816-.4414-.4779-.7616-.94-.9491z" fill="#fff"/></svg>

<svg width="24" height="24" viewBox="0 0 24 24" fill="none" xmlns="http://www.w3.org/2000/svg">
<path d="M4.38556 5.85969C4.36187 5.18793 4.46456 4.53961 4.88717 3.97722C4.89907 4.26623 4.93456 4.54352 5.05305 4.82081C5.28608 3.74679 5.83112 2.89538 6.72373 2.26269C6.64869 2.49312 6.5855 2.72355 6.60524 2.95398C6.94885 2.66497 7.34777 2.25879 8.35886 2.06742C8.93946 1.95805 9.5319 1.98937 10.0216 2.10653C11.5422 2.46974 12.4309 3.44612 12.7745 4.93021C12.9839 5.8324 12.8022 6.6877 12.4467 7.52349C12.2413 8.00778 11.9728 8.47644 11.6291 8.89434C11.5501 8.8201 11.4751 8.74586 11.4001 8.67562C9.70963 7.08216 10.3416 7.69143 9.92291 7.21496C9.87946 7.16806 9.88341 7.12913 9.91888 7.07427C10.2467 6.54703 10.3849 5.97291 10.3138 5.35584C10.2704 4.97309 10.144 4.61769 9.86754 4.33259C9.29485 3.73504 8.31929 3.74676 7.7545 4.35596C7.30425 4.84414 7.19761 5.42606 7.32399 6.05876C7.33187 6.10946 7.33974 6.16415 7.32399 6.21104C7.18971 6.74611 7.14231 7.28897 7.22526 7.83575C7.22928 7.85531 7.22928 7.87867 7.22928 7.89822C7.22928 7.91034 7.22526 7.91778 7.22141 7.94114C6.36039 7.51153 5.79955 6.83588 5.51518 5.90246C5.18736 6.59765 5.07677 7.28892 5.2545 8.01534C4.63836 7.4217 4.41321 6.67593 4.38556 5.85969ZM22.9329 10.6713C22.4748 10.2183 21.9455 9.87456 21.3491 9.63244C20.8436 9.42935 20.3222 9.32389 19.7732 9.35514C19.3783 9.37851 18.9991 9.47628 18.6278 9.60509C18.5291 9.64022 18.4264 9.66756 18.3237 9.69093C18.1302 9.73782 18.0354 9.56979 18.1381 9.42535C18.2645 9.24569 18.2724 9.2613 18.7305 8.95669C18.7542 8.94111 18.7779 8.92536 18.8174 8.89802H18.7187C18.695 8.89802 18.6713 8.90667 18.6436 8.91013C17.8814 9.03905 17.4311 9.51549 16.7123 10.0662C16.3015 10.3825 16.1672 10.2146 16.2383 10.0466C16.2936 9.9099 16.3687 9.78494 16.4398 9.65606C16.4793 9.5858 16.5306 9.52333 16.578 9.45686C16.5701 9.44821 16.5583 9.44475 16.5504 9.43731C15.484 10.152 14.7059 11.0933 14.2714 12.3001C14.2833 12.3122 14.2991 12.3234 14.3109 12.3352C14.3228 12.3118 14.3307 12.2883 14.3465 12.2687C14.7572 11.7962 15.247 11.4173 15.792 11.1049C16.5109 10.6909 17.2731 10.3902 18.1104 10.316C18.2803 10.3004 18.4541 10.3125 18.6278 10.3125C18.5568 10.3399 18.4896 10.3477 18.4185 10.3554C17.6878 10.4492 17.0164 10.707 16.3845 11.078C15.1917 11.7771 14.2319 12.7261 13.4183 13.8275C13.4064 13.843 13.4026 13.8626 13.3907 13.8782C13.9634 14.0852 14.3386 14.5538 14.8165 14.878C14.8243 14.8745 14.8284 14.8693 14.8322 14.8624L14.8796 14.757C15.3615 13.7064 15.946 12.7144 16.7241 11.8474C17.3837 11.1132 18.2249 10.8593 19.1926 11.0663C19.4256 11.117 19.6428 11.2381 19.8719 11.3319C19.9628 11.2772 20.0733 11.2069 20.1879 11.1483C20.5196 10.9803 20.8751 10.8749 21.2424 10.7968C21.823 10.6757 22.4076 10.6055 23 10.7461V10.7266C22.9802 10.711 22.9527 10.6947 22.9329 10.6713ZM13.6355 17.5255C12.0794 16.2367 12.735 16.7639 11.9491 16.1351C11.9175 16.1703 11.9491 16.1265 11.874 16.2523C11.4317 16.9982 10.8669 17.6309 10.1362 18.1113C9.72939 18.3769 9.28703 18.5722 8.78938 18.5722C7.93626 18.5722 7.28063 18.2011 6.83827 17.4864C6.36432 16.7249 6.31298 15.8969 6.51441 15.0416C6.82247 13.7215 7.70324 12.8857 8.03895 12.5303C7.30038 12.2882 6.73558 12.5968 6.20634 13.0732C6.23794 12.5303 6.37617 12.0499 6.67239 11.6164C5.71264 12.0304 4.85952 12.5928 4.11305 13.3309C4.10115 13.1044 4.32632 11.6242 4.33422 11.5852C4.34612 11.4798 4.31053 11.3782 4.21573 11.2962C3.25992 12.2608 2.45815 13.3192 2 14.6003C2.29227 14.3698 2.58849 14.155 2.93211 13.9676C2.60429 14.8385 2.15798 16.0297 2.62404 17.916C2.80572 18.6581 3.09404 19.3533 3.57589 19.9586C3.69043 20.1031 3.82472 20.2281 3.9511 20.3609C3.95898 20.3522 3.96685 20.3488 3.9748 20.3413C3.9195 20.0679 3.88791 19.7907 3.91556 19.486C4.00245 19.611 4.0696 19.7204 4.14859 19.8219C4.64624 20.4468 5.28213 20.892 6.0128 21.2123C7.0002 21.6536 8.03105 21.7317 9.08955 21.5481C11.2579 21.1693 12.6718 19.6501 13.6711 17.6895C13.7106 17.6192 13.6948 17.5764 13.6355 17.5255ZM20.4289 15.7133C20.0537 15.5922 19.5521 15.5493 19.2953 15.6002C19.6863 15.7564 19.8522 15.8579 20.0379 16.0688C20.5355 16.6312 20.4486 17.424 19.8246 17.8498C19.3625 18.1661 18.8411 18.2598 18.2882 18.2052C18.2408 18.2017 18.1973 18.1896 18.1697 18.1818C18.2803 18.0373 18.4067 17.9084 18.4896 17.76C18.8609 17.1039 18.7029 16.1158 18.146 15.569C18.0631 15.487 17.9643 15.4167 17.8695 15.3386C17.8576 15.3893 17.8655 15.4206 17.8735 15.4479C18.0394 16.0962 17.5536 16.7133 16.894 16.6899C16.5939 16.6778 16.345 16.5414 16.1199 16.3579C15.3497 15.7291 14.5756 15.1042 13.8094 14.4715C13.5764 14.2802 13.3157 14.1552 13.0155 14.1318C12.8338 14.1162 12.6482 14.1084 12.4665 14.0966C12.2335 14.0811 12.119 13.9873 12.0558 13.7686C12.0202 13.6358 11.9965 13.503 11.9689 13.3702C11.9096 13.0538 11.724 12.8625 11.4041 12.8156C11.2303 12.7883 11.0526 12.7765 10.8788 12.7569C10.3653 12.7023 10.0968 12.4679 9.98618 11.9641C9.7887 12.3937 9.92299 12.839 10.2745 13.1319C10.4522 13.2803 10.6418 13.417 10.8195 13.5693C11.0012 13.7178 11.1118 13.9091 11.1316 14.1473C11.1473 14.3309 11.1632 14.5183 11.2027 14.698C11.2895 15.112 11.5542 15.4166 11.8741 15.6783C12.5258 16.2133 13.1775 16.7445 13.8291 17.2835C14.5361 17.8693 14.3781 18.5645 14.3426 19.4706C14.307 20.3649 14.8244 21.146 15.6657 21.4702C15.7052 21.4858 15.7447 21.4935 15.8079 21.5131C15.1878 20.8023 15.409 19.7908 15.8355 19.4705C15.8474 19.5563 15.8513 19.6384 15.8711 19.7205C16.2424 21.4428 17.6642 22.2278 19.2283 21.9427C19.8602 21.8295 20.4368 21.5951 20.9226 21.1694C21.0016 21.0992 21.0688 21.0093 21.1557 20.9156C20.3934 21.0952 19.7417 20.919 19.1453 20.5016C19.173 20.4895 19.1967 20.4895 19.2204 20.4895C20.0616 20.5597 20.8239 20.3567 21.4716 19.8099C22.2418 19.1616 22.5222 18.1344 22.1589 17.2323C21.831 16.4472 21.2267 15.9711 20.4289 15.7133ZM5.05305 8.99974C4.84372 8.64042 4.5317 8.39047 4.18018 8.16785C4.72128 8.14829 5.23078 8.1765 5.74423 8.31234C5.46776 7.83587 5.40851 7.34767 5.54675 6.80089C5.75608 7.26566 6.08784 7.58591 6.47886 7.84759C7.25693 8.36311 7.88886 8.61306 8.32332 9.02705C8.4576 9.15597 8.57215 9.30435 8.70248 9.45276C8.67088 9.37074 8.64718 9.29269 8.6156 9.21842C8.41812 8.80444 8.10215 8.492 7.72298 8.24205C7.6519 8.19515 7.6124 8.14445 7.58871 8.06629C7.45837 7.5781 7.47021 7.08601 7.56106 6.59782C7.60055 6.38302 7.67164 6.17211 7.73879 5.96121C7.77039 5.86742 7.82963 5.78156 7.89678 5.70344C7.92047 5.97293 7.89678 6.69937 8.6709 7.49999C9.09746 7.94131 9.55561 8.35531 10.0098 8.7771C10.3653 9.10907 10.7326 9.42933 11.017 9.82377C11.0604 9.88624 11.1039 9.9527 11.1671 10.0073C10.9696 9.49962 10.6062 9.0661 10.2112 8.68727C9.83208 8.32406 9.44502 7.96865 9.05796 7.61716C8.92762 7.5 8.87628 7.35549 8.85653 7.19146C8.80914 6.78528 8.85653 6.38691 9.02637 6.01199C9.04613 5.97288 9.06982 5.93394 9.10141 5.88307C9.12117 6.04711 9.1251 6.19161 9.15671 6.3361C9.34629 7.23829 9.96243 7.75381 11.1039 8.81612C11.4988 9.18324 11.8661 9.56599 12.115 10.0503C12.3045 10.4135 12.4033 10.7923 12.3401 11.2063C12.3361 11.2297 12.3599 11.2728 12.3835 11.2843C12.6284 11.3859 12.7785 11.5538 12.7667 11.8428C13.0708 11.7413 13.2604 11.5304 13.4144 11.2765C13.5803 12.0655 13.055 13.241 12.3401 13.5691C12.3558 13.3933 12.5376 12.6552 11.6884 12.4873C11.4198 12.4366 11.1829 12.4366 10.784 12.4052C10.9696 12.0537 11.1947 11.6007 10.8037 11.5304C9.82024 11.3507 8.7183 11.6046 8.52082 11.71C8.84469 11.7256 9.16461 11.7492 9.44898 11.839C9.36999 12.0928 9.29099 12.335 9.2199 12.5771C9.14486 12.831 9.30284 13.1473 9.58722 12.952C9.63461 12.9169 9.67806 12.8778 9.71756 12.8467C9.59513 13.5458 9.60302 13.4676 9.60698 13.5614C9.61888 13.9597 9.98219 13.866 10.2271 13.8465C10.1283 14.3073 9.06193 14.9127 8.43394 14.8541C8.71041 14.6705 8.93554 14.4518 9.06193 14.155C8.80521 14.1863 8.55243 14.2175 8.3036 14.2488L8.2917 14.2137C8.47734 14.081 8.60767 13.909 8.69456 13.7021C9.03818 12.878 8.55238 12.218 7.70716 12.1438C7.34775 12.1124 7.00413 12.1751 6.68422 12.3586C6.92909 11.7493 7.36355 11.3197 7.97179 11.0112C7.37145 10.8431 7.62027 10.9058 7.00018 10.7651C7.57683 10.4019 8.19297 10.2496 8.83675 10.1949C8.63137 10.07 6.93699 10.0542 6.06413 11.0112C6.37615 11.0658 6.67632 11.1205 6.98044 11.1752C6.04043 11.4486 5.24261 11.9446 4.51588 12.5656C4.55933 12.3781 4.62253 12.1945 4.64622 12.0071C4.66992 11.8313 4.67781 11.6478 4.65025 11.4759C4.59101 11.1088 4.29873 10.8862 3.87217 10.8393C3.56016 10.8042 3.25604 10.8428 2.95192 10.89C2.91637 10.8935 2.88477 10.9021 2.83738 10.89C3.46142 10.312 4.25924 10.0425 4.93462 9.58168C5.1716 9.40593 5.20313 9.2614 5.05305 8.99974ZM10.1243 10.0464C10.2547 10.6713 10.622 11.0423 11.0643 10.9955C10.8827 10.5541 10.5864 10.2339 10.1243 10.0464Z" fill="white"/>
</svg>
